symbolic/64x64/apps/tanglet.svg

<svg xmlns="http://www.w3.org/2000/svg" width="64" height="64" version="1.1">
 <path style="opacity:0.2" d="m 32.156227,5.000078 c -0.98089,0.01066 -1.924654,0.067284 -2.768442,0.192388 -3.115874,0.5232288 -6.194554,1.7142243 -8.85036,3.0599528 C 12.594297,12.342953 3.840001,22.584567 4.0021986,30.303987 l 0.01496,-0.0134 c 0.00506,0.271408 0.055652,0.592708 0.149556,0.960275 0.2528908,0.989882 0.8185684,2.3105 1.6484339,3.870966 1.6597306,3.120936 4.3744295,7.198156 7.7519605,11.491828 5.169972,6.572305 10.392824,11.747601 13.317082,13.394137 l 0.0034,0.0017 c 2.053772,1.349736 3.835744,0.992234 4.46174,0.797744 2.068884,-0.375024 6.674344,-3.361394 12.313401,-8.173144 8.125484,-6.933387 15.343495,-15.052969 16.216801,-18.228699 l 0.03158,0.05308 C 61.266039,21.628117 46.714732,10.985897 44.850164,9.615715 41.413736,6.7345339 36.986765,5.000078 32.156227,5.000078 Z"/>
 <path style="fill:#0060d6" d="m 32.156227,4.0000011 c -0.98089,0.01066 -1.924654,0.067284 -2.768442,0.192388 -3.115874,0.5232288 -6.194554,1.7142243 -8.85036,3.0599528 C 12.594297,11.342876 3.840001,21.584491 4.0021986,29.303911 l 0.01496,-0.0134 c 0.00506,0.271408 0.055652,0.592708 0.149556,0.960276 0.2528908,0.989882 0.8185684,2.310499 1.6484339,3.870965 1.6597306,3.120936 4.3744295,7.198156 7.7519605,11.491828 5.169972,6.572305 10.392824,11.747601 13.317082,13.394137 l 0.0034,0.0017 c 2.053772,1.349736 3.835744,0.992234 4.46174,0.797744 2.068884,-0.375024 6.674344,-3.361394 12.313401,-8.173143 8.125484,-6.933388 15.343495,-15.05297 16.216801,-18.2287 l 0.03158,0.05308 C 61.266039,20.628041 46.714732,9.9858204 44.850164,8.6156381 41.413736,5.734457 36.986765,4.0000011 32.156227,4.0000011 Z"/>
 <path style="opacity:0.15;fill:#ffffff" d="M 4.8888788,28.275783 A 19.791032,3.4527074 51.519796 0 0 13.568406,45.614454 19.791032,3.4527074 51.519796 1 0 19.68564,42.218362 19.791032,3.4527074 51.519796 0 0 4.8888788,28.275783 Z"/>
 <path style="opacity:0.15;fill:#ffffff" d="M 59.079861,32.128518 A 3.2867602,20.080261 47.18196 0 0 30.238347,58.638283 3.2867602,20.080261 47.18196 1 0 59.900233,33.328908 3.2867602,20.080261 47.18196 0 0 59.079861,32.128518 Z"/>
 <path style="opacity:0.15;fill:#ffffff" d="m 32.582921,4.0084833 a 19.999999,19.940632 0 0 0 -20.58258,19.9307857 19.999999,19.940632 0 1 0 39.999273,0 A 19.999999,19.940632 0 0 0 32.582921,4.0084833 Z"/>
 <g style="font-size:6.73961735px;line-height:125%;font-family:Monospace;letter-spacing:0px;word-spacing:0px;opacity:0.2" transform="matrix(0.93118039,1.0620891,-1.0341807,0.95630941,-2.2073583,0.44291346)">
  <path d="m 21.291758,-14.698858 h 16.301451 v 3.447472 H 31.728952 V 2.9886901 H 27.167863 V -11.251386 h -5.876105 z"/>
 </g>
 <g style="font-size:6.73961735px;line-height:125%;font-family:Monospace;letter-spacing:0px;word-spacing:0px;fill:#ffffff" transform="matrix(0.93118039,1.0620891,-1.0341807,0.95630941,-2.2073583,-0.55708384)">
  <path style="fill:#ffffff" d="m 21.291758,-14.698858 h 16.301451 v 3.447472 H 31.728952 V 2.9886901 H 27.167863 V -11.251386 h -5.876105 z"/>
 </g>
 <g style="font-size:2.85384536px;line-height:125%;font-family:Monospace;letter-spacing:0px;word-spacing:0px;fill:#ffffff" transform="matrix(2.0464633,2.5367927,-0.07420004,0.86577168,-1.6000233,-1.5999982)">
  <path style="fill:#ffffff" d="m 6.6472733,20.51031 h 1.9313615 v 6.029861 h 3.3911702 v 1.459808 H 6.6472733 Z"/>
 </g>
 <g style="font-size:2.20785069px;line-height:125%;font-family:Monospace;letter-spacing:0px;word-spacing:0px;fill:#ffffff" transform="matrix(2.6906527,-2.4567729,-0.26157325,0.96728431,-1.6000233,-1.5999982)">
  <path style="fill:#ffffff" d="m 32.484429,126.84921 q -0.558862,0.27167 -1.160415,0.4075 -0.601553,0.13584 -1.241916,0.13584 -1.447608,0 -2.293664,-0.80725 -0.846055,-0.81112 -0.846055,-2.19664 0,-1.40103 0.861579,-2.2044 0.861579,-0.80336 2.359641,-0.80336 0.578267,0 1.106081,0.10867 0.531695,0.10866 1.001295,0.32212 v 1.19922 q -0.485124,-0.27555 -0.966366,-0.41138 -0.477362,-0.13584 -0.958604,-0.13584 -0.892627,0 -1.377751,0.50065 -0.481242,0.49677 -0.481242,1.42432 0,0.9198 0.465719,1.42044 0.465718,0.50065 1.323416,0.50065 0.232859,0 0.43079,-0.0272 0.201811,-0.031 0.360932,-0.0931 v -1.12549 h -0.912032 v -1.00129 h 2.328592 z"/>
 </g>
 <path style="opacity:0.1;fill:#ffffff" d="M 32.15625 4 C 31.17536 4.01066 30.230507 4.0663023 29.386719 4.1914062 C 26.270845 4.7146351 23.194869 5.9081778 20.539062 7.2539062 C 12.595934 11.344441 3.8417086 21.585267 4.0039062 29.304688 L 4.015625 29.289062 C 4.016096 29.314412 4.0257847 29.350458 4.0292969 29.378906 C 4.5346986 21.785888 12.909286 12.183072 20.539062 8.2539062 C 23.194869 6.9081777 26.270845 5.7146351 29.386719 5.1914062 C 30.230507 5.0663023 31.17536 5.01066 32.15625 5 C 36.986788 5 41.415135 6.7360064 44.851562 9.6171875 C 46.606037 10.906467 59.549445 20.410185 59.945312 32.216797 C 60.283033 19.949987 46.655344 9.9426993 44.851562 8.6171875 C 41.415135 5.7360064 36.986788 4 32.15625 4 z"/>
</svg>

<svg xmlns="http://www.w3.org/2000/svg" width="64" height="64"><path style="opacity:.2" d="M32.156 5c-.98.01-1.924.067-2.768.192-3.116.524-6.195 1.715-8.85 3.06C12.593 12.343 3.84 22.585 4.001 30.304l.015-.013c.005.271.056.592.15.96.253.99.818 2.31 1.648 3.87 1.66 3.122 4.375 7.199 7.752 11.493 5.17 6.572 10.393 11.747 13.317 13.394l.004.001c2.053 1.35 3.835.993 4.461.798 2.07-.375 6.675-3.361 12.314-8.173 8.125-6.933 15.343-15.053 16.217-18.229l.031.053c1.355-12.83-13.196-23.472-15.06-24.842A19.69 19.69 0 0 0 32.155 5z"/><path style="fill:#0060d6" d="M32.156 4c-.98.01-1.924.067-2.768.192-3.116.524-6.195 1.715-8.85 3.06-7.944 4.09-16.698 14.332-16.536 22.052l.015-.013c.005.27.056.592.15.96.253.99.818 2.31 1.648 3.87 1.66 3.122 4.375 7.199 7.752 11.493 5.17 6.572 10.393 11.747 13.317 13.394l.004.001c2.053 1.35 3.835.993 4.461.798 2.07-.375 6.675-3.361 12.314-8.173 8.125-6.933 15.343-15.053 16.217-18.229l.031.053c1.355-12.83-13.196-23.472-15.06-24.842A19.69 19.69 0 0 0 32.155 4z"/><path style="opacity:.15;fill:#fff" d="M4.889 28.276a19.791 3.453 51.52 0 0 8.68 17.338 19.791 3.453 51.52 1 0 6.117-3.396A19.791 3.453 51.52 0 0 4.889 28.276z"/><path style="opacity:.15;fill:#fff" d="M59.08 32.129a3.287 20.08 47.182 0 0-28.842 26.51A3.287 20.08 47.182 1 0 59.9 33.328a3.287 20.08 47.182 0 0-.82-1.2zM32.583 4.008A20 19.94 0 0 0 12 23.94a20 19.94 0 1 0 40 0A20 19.94 0 0 0 32.583 4.01z"/><path d="M21.292-14.699h16.301v3.448H31.73v14.24h-4.561v-14.24h-5.876z" transform="matrix(.93118 1.06209 -1.03418 .9563 -2.207 .443)" style="font-size:6.73961735px;line-height:125%;font-family:Monospace;letter-spacing:0;word-spacing:0;opacity:.2"/><g style="font-size:6.73961735px;line-height:125%;font-family:Monospace;letter-spacing:0;word-spacing:0;fill:#fff"><path style="fill:#fff" d="M21.292-14.699h16.301v3.448H31.73v14.24h-4.561v-14.24h-5.876z" transform="matrix(.93118 1.06209 -1.03418 .9563 -2.207 -.557)"/></g><g style="font-size:2.85384536px;line-height:125%;font-family:Monospace;letter-spacing:0;word-spacing:0;fill:#fff"><path style="fill:#fff" d="M6.647 20.51H8.58v6.03h3.39V28H6.648z" transform="matrix(2.04646 2.5368 -.0742 .86577 -1.6 -1.6)"/></g><g style="font-size:2.20785069px;line-height:125%;font-family:Monospace;letter-spacing:0;word-spacing:0;fill:#fff"><path style="fill:#fff" d="M32.484 126.85q-.558.27-1.16.407-.602.136-1.242.136-1.448 0-2.294-.808-.846-.81-.846-2.196 0-1.401.862-2.205.862-.803 2.36-.803.578 0 1.106.109.531.108 1.001.322v1.199q-.485-.276-.966-.411-.478-.136-.959-.136-.893 0-1.378.5-.481.497-.481 1.425 0 .92.466 1.42.465.5 1.323.5.233 0 .43-.026.203-.031.362-.094v-1.125h-.912v-1.001h2.328z" transform="matrix(2.69065 -2.45677 -.26157 .96728 -1.6 -1.6)"/></g><path style="opacity:.1;fill:#fff" d="M32.156 4c-.98.01-1.925.066-2.77.191-3.115.524-6.191 1.717-8.847 3.063-7.943 4.09-16.697 14.331-16.535 22.05l.012-.015c0 .025.01.061.013.09.506-7.593 8.88-17.196 16.51-21.125 2.656-1.346 5.732-2.54 8.848-3.063.844-.125 1.788-.18 2.77-.191 4.83 0 9.258 1.736 12.695 4.617 1.754 1.29 14.697 10.793 15.093 22.6.338-12.267-13.29-22.274-15.093-23.6A19.695 19.695 0 0 0 32.156 4z"/></svg>
